X:6
T:``Soucy'' tune
R:reel
C:Isidor Soucy, via Keith Murphy and Becky Tracy
M:4/4
K:D
|: DFAd ~B2 AG | FABc dcd2 | \
DFAd ~B2 AF | BFAF EGFE | \
DFAd ~B2 AF | FABc dcde | \
fdfa gfed  |1 cABc dBAF :|2 cABc d2 fg  \
:: a2 fd Adfa | g2 ec Acef | \
gece aece | bgec defg | a2 fd Adfa | g2 ec Acef | \
gece aece |1 bgec defg :|2 bgec dBAF ||
